flaticon/religion/shinto.svg

<svg xmlns="http://www.w3.org/2000/svg" width="32" height="32" viewBox="0 0 24 24">
    <path d="M 12 0 C 5.382812 0 0 5.382812 0 12 C 0 18.617188 5.382812 24 12 24 C 18.617188 24 24 18.617188 24 12 C 24 5.382812 18.617188 0 12 0 Z M 12 23.171875 C 5.839844 23.171875 0.828125 18.160156 0.828125 12 C 0.828125 5.839844 5.839844 0.828125 12 0.828125 C 18.160156 0.828125 23.171875 5.839844 23.171875 12 C 23.171875 18.160156 18.160156 23.171875 12 23.171875 Z M 12 23.171875"/>
    <path d="M 19.863281 4.964844 C 19.863281 4.847656 19.8125 4.738281 19.726562 4.660156 C 19.640625 4.582031 19.527344 4.542969 19.410156 4.554688 C 14.007812 5.042969 9.644531 5.214844 4.605469 4.554688 C 4.484375 4.539062 4.367188 4.574219 4.277344 4.65625 C 4.1875 4.734375 4.136719 4.847656 4.136719 4.964844 C 4.136719 6.042969 4.832031 6.960938 5.792969 7.304688 L 5.792969 8.277344 L 4.964844 8.277344 C 4.738281 8.277344 4.550781 8.460938 4.550781 8.691406 L 4.550781 10.757812 C 4.550781 10.988281 4.738281 11.171875 4.964844 11.171875 L 5.378906 11.171875 L 5.378906 17.90625 C 4.652344 18.160156 4.136719 18.859375 4.136719 19.648438 C 4.136719 19.996094 4.417969 20.277344 4.765625 20.277344 L 8.890625 20.277344 C 9.234375 20.277344 9.515625 19.996094 9.515625 19.648438 C 9.515625 18.855469 9.003906 18.160156 8.277344 17.90625 L 8.277344 11.171875 L 15.722656 11.171875 L 15.722656 17.90625 C 14.996094 18.160156 14.484375 18.859375 14.484375 19.648438 C 14.484375 19.996094 14.765625 20.277344 15.109375 20.277344 L 19.238281 20.277344 C 19.582031 20.277344 19.863281 19.996094 19.863281 19.648438 C 19.863281 18.855469 19.347656 18.160156 18.621094 17.90625 L 18.621094 11.171875 L 19.035156 11.171875 C 19.261719 11.171875 19.449219 10.988281 19.449219 10.757812 L 19.449219 8.691406 C 19.449219 8.460938 19.261719 8.277344 19.035156 8.277344 L 18.207031 8.277344 L 18.207031 7.304688 C 19.167969 6.960938 19.863281 6.042969 19.863281 4.964844 Z M 18.621094 9.101562 L 18.621094 10.34375 L 18.207031 10.34375 C 17.976562 10.34375 17.792969 10.53125 17.792969 10.757812 L 17.792969 18.226562 C 17.792969 18.433594 17.945312 18.609375 18.148438 18.636719 C 18.585938 18.699219 18.929688 19.03125 19.015625 19.449219 L 15.332031 19.449219 C 15.417969 19.03125 15.757812 18.699219 16.195312 18.636719 C 16.398438 18.609375 16.550781 18.433594 16.550781 18.226562 L 16.550781 10.757812 C 16.550781 10.53125 16.367188 10.34375 16.136719 10.34375 L 7.863281 10.34375 C 7.632812 10.34375 7.449219 10.53125 7.449219 10.757812 L 7.449219 18.226562 C 7.449219 18.433594 7.601562 18.609375 7.804688 18.636719 C 8.242188 18.699219 8.582031 19.03125 8.667969 19.449219 L 4.984375 19.449219 C 5.070312 19.03125 5.414062 18.699219 5.851562 18.636719 C 6.054688 18.609375 6.207031 18.433594 6.207031 18.226562 L 6.207031 10.757812 C 6.207031 10.53125 6.023438 10.34375 5.792969 10.34375 L 5.378906 10.34375 L 5.378906 9.101562 L 6.207031 9.101562 C 6.4375 9.101562 6.621094 8.917969 6.621094 8.691406 L 6.621094 7.449219 L 7.449219 7.449219 L 7.449219 8.691406 C 7.449219 8.917969 7.632812 9.101562 7.863281 9.101562 L 16.136719 9.101562 C 16.367188 9.101562 16.550781 8.917969 16.550781 8.691406 L 16.550781 7.449219 L 17.378906 7.449219 L 17.378906 8.691406 C 17.378906 8.917969 17.5625 9.101562 17.792969 9.101562 Z M 8.277344 8.277344 L 8.277344 7.449219 L 9.515625 7.449219 L 9.515625 8.277344 Z M 10.34375 8.277344 L 10.34375 7.449219 L 13.242188 7.449219 L 13.242188 8.277344 Z M 14.070312 8.277344 L 14.070312 7.449219 L 15.722656 7.449219 L 15.722656 8.277344 Z M 17.378906 6.621094 L 6.621094 6.621094 C 5.875 6.621094 5.242188 6.125 5.035156 5.441406 C 9.765625 6.011719 13.9375 5.863281 18.96875 5.421875 C 18.769531 6.113281 18.132812 6.621094 17.378906 6.621094 Z M 17.378906 6.621094"/>
</svg>

<svg xmlns="http://www.w3.org/2000/svg" width="32" height="32" viewBox="0 0 24 24">
    <path d="M12 0C5.383 0 0 5.383 0 12s5.383 12 12 12 12-5.383 12-12S18.617 0 12 0zm0 23.172C5.84 23.172.828 18.16.828 12 .828 5.84 5.84.828 12 .828 18.16.828 23.172 5.84 23.172 12c0 6.16-5.012 11.172-11.172 11.172zm0 0"/>
    <path d="M19.863 4.965a.412.412 0 0 0-.136-.305.408.408 0 0 0-.317-.105c-5.402.488-9.765.66-14.805 0a.403.403 0 0 0-.328.101.41.41 0 0 0-.14.309c0 1.078.695 1.996 1.656 2.34v.972h-.828a.414.414 0 0 0-.414.414v2.067c0 .23.187.414.414.414h.414v6.734a1.86 1.86 0 0 0-1.242 1.742c0 .348.281.63.629.63H8.89a.628.628 0 0 0 .625-.63c0-.793-.512-1.488-1.239-1.742v-6.734h7.446v6.734a1.857 1.857 0 0 0-1.239 1.742c0 .348.282.63.625.63h4.13a.628.628 0 0 0 .624-.63c0-.793-.515-1.488-1.242-1.742v-6.734h.414a.414.414 0 0 0 .414-.414V8.69a.414.414 0 0 0-.414-.414h-.828v-.972a2.493 2.493 0 0 0 1.656-2.34zm-1.242 4.137v1.242h-.414a.414.414 0 0 0-.414.414v7.469c0 .207.152.382.355.41.438.062.782.394.868.812h-3.684c.086-.418.426-.75.863-.812a.413.413 0 0 0 .356-.41v-7.47a.414.414 0 0 0-.414-.413H7.863a.414.414 0 0 0-.414.414v7.469c0 .207.153.382.356.41.437.062.777.394.863.812H4.984c.086-.418.43-.75.868-.812a.413.413 0 0 0 .355-.41v-7.47a.414.414 0 0 0-.414-.413h-.414V9.102h.828c.23 0 .414-.184.414-.41V7.448h.828v1.242c0 .227.184.41.414.41h8.274c.23 0 .414-.183.414-.41V7.45h.828v1.242c0 .227.183.41.414.41zM8.277 8.277V7.45h1.239v.828zm2.067 0V7.45h2.898v.828zm3.726 0V7.45h1.653v.828zm3.309-1.656H6.62a1.66 1.66 0 0 1-1.586-1.18c4.73.57 8.902.422 13.934-.02-.2.692-.836 1.2-1.59 1.2zm0 0"/>
</svg>
